X:1
T:Lobe den Herrn meine Seele
T:Carl Stein
T:Psalm 103
T:Lobe den Herrn meine Seele
T:CPDL - Creative Commons Attribution Non Commercial 3.0
T:CPDL - Creative Commons Attribution Non Commercial 3.0
T:CPDL - Creative Commons Attribution Non Commercial 3.0
T:CPDL - Creative Commons Attribution Non Commercial 3.0
T:CPDL - Creative Commons Attribution Non Commercial 3.0
T:CPDL - Creative Commons Attribution Non Commercial 3.0
T:CPDL - Creative Commons Attribution Non Commercial 3.0
T:CPDL - Creative Commons Attribution Non Commercial 3.0
C:Carl Stein
Z:Psalm 103
Z:CPDL - Creative Commons Attribution Non Commercial 3.0
%%score [ 1 2 3 4 ]
L:1/8
Q:1/4=90
M:4/4
K:D
V:1 treble nm="Sopran"
V:2 treble nm="Alt"
V:3 treble-8 nm="Tenor"
V:4 bass nm="Bass"
V:1
"^Soli""^Mäßig" A4 A2!<(! A2 | (A2 d2)!<)! c2 B2 | (A4!>(! G4) | F4!>)! z4 | z4 z2!p! F2 | %5
w: Lo- be den|Herrn, * mei- ne|See- *|le,|was|
!<(! G2 BA A2!<)!!f! AA |!<(! (^G2 d2) c2!<)! B2 |[Q:1/4=88]"^rit." (e2 c2!>(! B2) A2!>)! | %8
w: in mir * ist, sei- nen|hei- * li- gen|Na- * * men.|
"^Chor"!f![Q:1/4=90] A4 A2 A2 | (A2 f2) d2 B2 | A8 |!>(! A4!>)!!p! A2!<(! ^A2 | ^A4!<)! B2 B2 | %13
w: Lo- be den|Herrn, * mei- ne|See-|le, und ver-|giss nicht, ver-|
!>(! B4 B4!>)! | z2!mf! e2 c2 B2 | A4 D2 G2 | (F4!>(! E4) | D4!>)! z4 | z8 | z4!mf! E2 E2 | %20
w: giss nicht,|was er dir|Gu- tes ge-|tan _|hat.||Der dein|
 e2 d2 c2 B2 | ^A4 B2 c2 | d8- | d2 c2!<(! c2 B2 | (A4 ^A4- | A2 B2) c2!<)!!f! d2 | (f4 e4 | %27
w: Le- ben vom Ver-|der- ben er-|lö-|* set, der dich|krö- *|* * net mit|Gna- *|
 d4) c4 | B2 d2 c2!>(! B2!>)! |!p! A8- | A4!pp! A4 | A8- | A8- | (A4 B4) | A4!p! E2 F2 | (=G8 | %36
w: * de|und Barm- her- zig-|keit,|_ mit|Gna-|||de und Barm-|her-|
 F8 | d2 B2 A2) ^G2 |!>(! A8!>)! |"^Soli"!p! A4 A2 A2 | (A2 d2) c2 B2 | (A4 G4) | F4 z4 | %43
w: |* * * zig-|keit,|Lo- be den|Herrn, * mei- ne|See- *|le,|
 z4 z2 F2 | G2 BA A2 AA |!<(! (^G2 d2) c2!<)! B2 |[Q:1/4=88]"^rit."!>(! (e2 c2 B2) A2!>)! | %47
w: was|in mir * ist, sei- nen|hei- * li- gen|Na- * * men!|
"^Chor"!p![Q:1/4=90]!<(! A4 A2 A2!<)! | (A2 f2) d2 B2 | A8 |!>(! A4!>)!!p!!<(! A2 ^A2 | %51
w: Lo- be den|Herrn, * mei- ne|See-|le, und ver-|
 ^A4!<)! B2 B2 |!>(! B4 B4!>)! | z2!mf! e2 c2 B2 | A4 D2 G2 | (F4!>(! E4) | D4!>)! z4 | e4 d3 c | %58
w: giss nicht, ver-|giss nicht,|was er dir|Gu- tes ge-|tan _|hat.|Lo- be den|
 d4 z4 |!f![Q:1/4=96]"^Beschleunigend" e4 d3 c | d4!<(! (F4 | G4 A4 | B4!<)! g4) | f4 e4 | d4 z4 | %65
w: Herrn!|Lo- be den|Herrn! Lo-|||be den|Herrn!|
!ff![Q:1/4=80]"^Langsam" d8 | d6 d2 | !fermata!d8 |] %68
w: Lo-|be den|Herrn!|
V:2
 F4 E2!<(! G2 | F4!<)! G2 G2 | (F4!>(! E4) | D4!>)!!p! D2 D2 | E2 GF F2 D2 | %5
w: Lo- be den|Herrn, mei- ne|See- *|le, und was|in mir * ist, was|
!<(! D2 C2 D2!<)!!f! FE |!<(! (D2 F2) E2!<)! E2 | =G6!>(! G2!>)! |!f! F4 E2 G2 | F4 F2 G2 | %10
w: in mir ist, sei- nen|hei- * li- gen|Na- men.|Lo- be den|Herrn, mei- ne|
 (E2 F2!>(! G4) | F4!>)!!p! F2!<(! E2 | E4!<)! D2 ^D2 |!>(! ^D4 E4!>)! | z2!mf! G2 E2 =D2 | %15
w: See- * *|le, und ver-|giss nicht, ver-|giss nicht,|was er dir|
 C4 D2 D2 | (D4!>(! C4) | D4!>)!!mf! F2 F2 | B2 A2 ^G2 F2 | E4 E2 D2 | (C2 D2 E4- | E2 =G2) F2 E2 | %22
w: Gu- tes ge-|tan _|hat. Der dein|Le- ben vom Ver-|der- ben er-|lö- * *|* * set, er-|
 (D2 F2 ^E2 F2) | ^G4!<(! A2 G2 | (F4 =G4 | F4) F2!<)!!f! F2 | ^G4 A4 | A4 A4 | A4 ^G4 | %29
w: lö- * * *|set, der dich|krö- *|* net mit|Gna- de|und Barm-|her- zig-|
!>(! A2!>)! z2!p! (C4 | D4) E2 F2 | (=G8 | F8-) | (F4 =F4) | E4!p! C2 D2 | (E8- | E4 D4 | F4) =F4 | %38
w: keit, krö-|* net mit|Gna-|||de und Barm-|her-||* zig-|
!>(! (E4 G4)!>)! |!p! F4 E2 G2 | F4 G2 G2 | (F4 E4) | D4 D2 D2 | E2 GF F2 D2 | D2 C2 D2 FE | %45
w: keit. _|Lo- be den|Herrn, mei- ne|See- *|le, und was|in mir * ist, was|in mir ist, sei- nen|
!<(! (D2 F2) E2!<)! E2 |!>(! =G6 G2!>)! |!p!!<(! F4 E2 G2!<)! | F4 A2 G2 | (E2 F2!>(! G4)!>)! | %50
w: hei- * li- gen|Na- men!|Lo- be den|Herrn, mei- ne|See- * *|
 F4!p!!<(! F2 E2 | E4!<)! D2 ^D2 |!>(! ^D4 E4!>)! | z2!mf! G2 E2 =D2 | C4 D2 E2 | (D6!>(! C2) | %56
w: le, und ver-|giss nicht, ver-|giss nicht,|was er dir|Gu- tes ge-|tan _|
 D4!>)! z4 | G4 F3 E | F4 z4 |!f! G4 F3 E | F4!<(! (D4 | E4 F4 | G8)!<)! | A4 (B2 c2) | d4 z4 | %65
w: hat.|Lo- be den|Herrn!|Lo- be den|Herrn! Lo-|||be den *|Herrn!|
!ff! G8 | G6 G2 | !fermata!F8 |] %68
w: Lo-|be den|Herrn!|
V:3
 (A2 d2) c2!<(! e2 | (d2 A2)!<)! B2 c2 | (d6!>(! cB) | A4!>)!!p! A2 ^A2 | B2 c2 d2 =c2 | %5
w: Lo- * be den|Herrn, * mei- ne|See- * *|le, und was|in mir ist, was|
!<(! B2 G2 F2!<)!!f! dc |!<(! (B2 A2) ^G2!<)! G2 | (A2 c2!>(! d2) e2!>)! |!f! (A2 d2) c2 e2 | %9
w: in mir ist, sei- nen|hei- * li- gen|Na- * * men.|Lo- * be den|
 (d2 A2) d2 d2 | (d6!>(! c2) | d4!>)!!p! d2!<(! c2 | c4!<)! B2 B2 |!>(! B4 B4!>)! | %14
w: Herrn, * mei- ne|See- *|le, und ver-|giss nicht, ver-|giss nicht,|
 z2!mf! B2 G2 G2 | G4 F2 B2 | (A4!>(! G4) | F4!>)!!mf! A2 A2 | d2 c2 B2 A2 | (^G2 B2) A2 G2 | %20
w: was er dir|Gu- tes ge-|tan _|hat. Der dein|Le- ben vom Ver-|der- * ben er-|
 (A2 B2 c4- | c2 e2) d2 c2 | B8- | B2 c2!<(! c2 c2 | (c8 | d4) e2!<)!!f! d2 | (d4 c4 | f4) e4 | %28
w: lö- * *|* * set, er-|lö-|* set, der dich|krö-|* net mit|Gna- *|* de|
 d2 B2 e2!>(! d2!>)! | c2 z2!p! (A4 | B4) c2 d2 | (e8 | d8-) | d8 | c4!p! A2 A2 | (A8- | A8 | %37
w: und Barm- her- zig-|keit, krö-|* net mit|Gna-|||de und Barm-|her-||
 d4) d4 |!>(! (c4 e2 A2)!>)! |!p! (A2 d2) c2 e2 | (d2 A2) B2 c2 | (d6 cB) | A4 A2 ^A2 | %43
w: * zig-|keit. _ _|Lo- * be den|Herrn, * mei- ne|See- * *|le, und was|
 B2 c2 d2 =c2 | B2 G2 F2 dc |!<(! (B2 A2) ^G2!<)! G2 |!>(! (A2 c2 d2) e2!>)! | %47
w: in mir ist, was|in mir ist, sei- nen|hei- * li- gen|Na- * * men!|
!p!!<(! (A2 d2) c2 e2!<)! | (d2 A2) d2 d2 | (d6!>(! c2)!>)! | d4!p!!<(! d2 c2 | c4!<)! B2 B2 | %52
w: Lo- * be den|Herrn, * mei- ne|See- *|le, und ver-|giss nicht, ver-|
!>(! B4 B4!>)! | z2!mf! B2 G2 G2 | G4 F2 B2 | (A4!>(! G4) | F4!>)! z4 | c4 d3 A | d4 z4 | %59
w: giss nicht,|was er dir|Gu- tes ge-|tan _|hat.|Lo- be den|Herrn!|
!f! c4 d3 A | A4 (d4 | c4 =c4 | B4 _B4) | A4 G4 | F4 z4 |!ff! B8 | B6 B2 | !fermata!A8 |] %68
w: Lo- be den|Herrn! Lo-|||be den|Herrn!|Lo-|be den|Herrn!|
V:4
 D,4 D,2!<(! D,2 | D,4!<)! D,2 D,2 | (D,2 A,,6) |!>(! D,4!>)!!p! F,2 F,2 | G,2 A,2 D,4- | D,6 z2 | %6
w: Lo- be den|Herrn, mei- ne|See- *|le, und was|in mir ist,|_|
 z2!f! (B,,2 E,2) D,2 | (C,2 A,,2!>(! B,,2) C,2!>)! |!f! D,4 D,2 D,2 | D,4 F,2 G,2 | %10
w: sei- * nen|Na- * * men!|Lo- be den|Herrn, mei- ne|
 (A,4!>(! A,,4) | D,4!>)!!p! F,2!<(! F,2 | F,4!<)! G,2 G,2 |!>(! G,4 G,4!>)! | z2!mf! E,2 E,2 E,2 | %15
w: See- *|le, und ver-|giss nicht, ver-|giss nicht,|was er dir|
 A,,4 B,,2 G,,2 | A,,8 |!>(! D,4!>)! z4 | z4!mf! B,,2 B,,2 | E,2 D,2 C,2 B,,2 | A,,4 A,,2 =G,2 | %21
w: Gu- tes ge-|tan|hat.|Der dein|Le- ben vom Ver-|der- ben er-|
 (F,8 | B,2 A,2 ^G,2 F,2) | ^E,4!<(! E,2 E,2 | (F,4 =E,4 | D,4) ^A,,2!<)!!f! B,,2 | E,4 E,4 | %27
w: lö-||set, der dich|krö- *|* net mit|Gna- de|
 E,4 E,4 | E,4 E,4 |!p!!>(! A,,8-!>)! | A,,4 z4 | z2!f! !^!A,,2 !^!B,,2 !^!C,2 | %32
w: und Barm-|her- zig-|keit,|_|der dei- nen|
 (D,2 E,2) F,2 E,D, | A,8- | A,2 z2 z4 |!f! !^!A,,2 !^!B,,2 !^!C,2 !^!A,,2 | !^!D,2 E,2 F,2 E,D, | %37
w: Mund * fröh- lich *|macht|_|und der dich ver-|jün- get wie ein *|
 A,8 | A,,4 z4 |!p! D,4 D,2 D,2 | D,4 D,2 D,2 | (D,2 A,,6) | D,4 F,2 F,2 | G,2 A,2 D,4- | D,6 z2 | %45
w: Ad-|ler.|Lo- be den|Herrn, mei- ne|See- *|le, und was|in mir ist,|_|
 z2 (B,,2 E,2) D,2 |!>(! (C,2 A,,2 B,,2) C,2!>)! |!p!!<(! D,4 D,2 D,2!<)! | D,4 F,2 G,2 | %49
w: sei- * nen|Na- * * men!|Lo- be den|Herrn, mei- ne|
 (A,4 A,,4) |!>(! D,4!>)!!p!!<(! F,2 F,2 | G,4!<)! G,2 G,2 |!>(! G,4 G,4!>)! | z2!mf! E,2 E,2 E,2 | %54
w: See- *|le, und ver-|giss nicht, ver-|giss nicht,|was er dir|
 A,,4 B,,2 G,,2 | A,,8 |!>(! D,2!>)!!f! A,2 F,2 D,2 | A,,4 z4 | z2!f! B,A, G,F, E,D, | A,,4 z4 | %60
w: Gu- tes ge-|tan|hat. Lo- be den|Herrn!|Lo- * be * den *|Herrn!|
 D,8- | D,8- | D,8 | D,4 D,4 | D,4 z4 |!ff! G,8 | G,6 G,2 | !fermata!D,8 |] %68
w: Lo-|||be den|Herrn!|Lo-|be den|Herrn!|

